icons/svg/shopping/vending_machine.svg

<?xml version="1.0" encoding="UTF-8" standalone="no"?>
<!-- Created with Inkscape (http://www.inkscape.org/) -->

<svg
   xmlns:dc="http://purl.org/dc/elements/1.1/"
   xmlns:cc="http://creativecommons.org/ns#"
   xmlns:rdf="http://www.w3.org/1999/02/22-rdf-syntax-ns#"
   xmlns:svg="http://www.w3.org/2000/svg"
   xmlns="http://www.w3.org/2000/svg"
   xmlns:sodipodi="http://sodipodi.sourceforge.net/DTD/sodipodi-0.dtd"
   xmlns:inkscape="http://www.inkscape.org/namespaces/inkscape"
   version="1.0"
   width="580"
   height="580"
   id="svg2"
   sodipodi:version="0.32"
   inkscape:version="0.48.0 r9654"
   sodipodi:docname="shopping_vendingmachine2.svg"
   inkscape:output_extension="org.inkscape.output.svg.inkscape">
  <metadata
     id="metadata10">
    <rdf:RDF>
      <cc:Work
         rdf:about="">
        <dc:format>image/svg+xml</dc:format>
        <dc:type
           rdf:resource="http://purl.org/dc/dcmitype/StillImage" />
        <cc:license
           rdf:resource="http://web.resource.org/cc/PublicDomain" />
        <dc:language>en</dc:language>
        <dc:title></dc:title>
      </cc:Work>
    </rdf:RDF>
  </metadata>
  <sodipodi:namedview
     inkscape:window-height="1002"
     inkscape:window-width="1278"
     inkscape:pageshadow="2"
     inkscape:pageopacity="0.0"
     guidetolerance="10.0"
     gridtolerance="10.0"
     objecttolerance="10.0"
     borderopacity="1.0"
     bordercolor="#666666"
     pagecolor="#ffffff"
     id="base"
     showgrid="false"
     inkscape:zoom="0.03125"
     inkscape:cx="-5142.3352"
     inkscape:cy="-8834.4272"
     inkscape:window-x="0"
     inkscape:window-y="24"
     inkscape:current-layer="svg2"
     inkscape:window-maximized="0" />
  <defs
     id="defs4">
    <inkscape:perspective
       sodipodi:type="inkscape:persp3d"
       inkscape:vp_x="0 : 290 : 1"
       inkscape:vp_y="0 : 1000 : 0"
       inkscape:vp_z="580 : 290 : 1"
       inkscape:persp3d-origin="290 : 193.33333 : 1"
       id="perspective12" />
    <style
       type="text/css"
       id="style6">
   
    .fil0 {fill:#EF7900}
   
  </style>
    <inkscape:perspective
       id="perspective6807"
       inkscape:persp3d-origin="29.116032 : 19.410688 : 1"
       inkscape:vp_z="58.232063 : 29.116032 : 1"
       inkscape:vp_y="0 : 1000 : 0"
       inkscape:vp_x="0 : 29.116032 : 1"
       sodipodi:type="inkscape:persp3d" />
    <inkscape:perspective
       id="perspective6954"
       inkscape:persp3d-origin="290 : 193.33333 : 1"
       inkscape:vp_z="580 : 290 : 1"
       inkscape:vp_y="0 : 1000 : 0"
       inkscape:vp_x="0 : 290 : 1"
       sodipodi:type="inkscape:persp3d" />
    <inkscape:perspective
       id="perspective2541"
       inkscape:persp3d-origin="240 : 160 : 1"
       inkscape:vp_z="480 : 240 : 1"
       inkscape:vp_y="0 : 1000 : 0"
       inkscape:vp_x="0 : 240 : 1"
       sodipodi:type="inkscape:persp3d" />
    <inkscape:perspective
       id="perspective2750"
       inkscape:persp3d-origin="215 : 143.33333 : 1"
       inkscape:vp_z="430 : 215 : 1"
       inkscape:vp_y="0 : 1000 : 0"
       inkscape:vp_x="0 : 215 : 1"
       sodipodi:type="inkscape:persp3d" />
    <inkscape:perspective
       id="perspective3730"
       inkscape:persp3d-origin="88.929146 : 101.19778 : 1"
       inkscape:vp_z="177.85829 : 151.79668 : 1"
       inkscape:vp_y="0 : 1000 : 0"
       inkscape:vp_x="0 : 151.79668 : 1"
       sodipodi:type="inkscape:persp3d" />
  </defs>
  <g
     id="g1327">
    <path
       d="M 66.275,1.768 C 24.94,1.768 1.704,23.139 1.704,66.804 L 1.704,516.927 C 1.704,557.771 22.598,579.156 63.896,579.156 L 515.92,579.156 C 557.227,579.156 578.149,558.84 578.149,516.927 L 578.149,66.804 C 578.149,24.203 557.227,1.768 514.627,1.768 C 514.624,1.768 66.133,1.625 66.275,1.768 z"
       style="fill:#111111;stroke:#eeeeee;stroke-width:3.40799999"
       id="path1329" />
  </g>
  <path
     style="font-size:medium;font-style:normal;font-variant:normal;font-weight:normal;font-stretch:normal;text-indent:0;text-align:start;text-decoration:none;line-height:normal;letter-spacing:normal;word-spacing:normal;text-transform:none;direction:ltr;block-progression:tb;writing-mode:lr-tb;text-anchor:start;baseline-shift:baseline;opacity:0.75;color:#000000;fill:#ffffff;fill-opacity:1;fill-rule:nonzero;stroke:none;stroke-width:20;marker:none;visibility:visible;display:inline;overflow:visible;enable-background:accumulate;font-family:Sans;-inkscape-font-specification:Sans"
     d="m 347.15625,40.3125 c -10.69432,0.259341 -17.37321,11.177729 -15.5,21.25 0,12.614583 0,45.22917 0,57.84375 12.53176,-0.0607 25.06286,-0.18754 37.59375,-0.34375 0.18456,-14.69623 -0.47858,-29.500573 0.34375,-44.09375 1.24295,-5.663269 9.19277,-5.968442 12.02382,-1.212612 34.26775,27.344042 68.26697,55.130412 102.44148,82.473492 4.99676,2.5586 11.19203,9.008 6.6597,14.77037 -35.69604,28.94161 -71.4973,57.8111 -107.17586,86.73836 -3.4913,4.25554 -10.49687,8.46131 -15.19914,3.38664 -1.97517,-15.82567 -0.63598,-31.79738 -0.90625,-47.6875 -11.92708,0 -23.85417,0 -35.78125,0 0.12562,109.87212 -0.25083,199.76715 0.1875,309.625 1.26242,9.86773 11.7419,15.45616 21.125,13.78125 57.79653,-0.19144 115.63632,0.38031 173.40625,-0.28125 9.54593,-1.66542 14.71275,-11.86646 13.125,-21.03125 C 539.4375,361.98022 539.62507,208.42079 539.4063,54.875 538.65061,44.612978 527.90998,38.554172 518.18755,40.28125 461.17736,40.30217 404.1654,40.23946 347.1563,40.3125 z"
     id="rect8562"
     inkscape:connector-curvature="0"
     sodipodi:nodetypes="cccccccccccccccccccc" />
  <path
     style="fill:#ffffff;fill-opacity:1;stroke:#ffffff;stroke-width:10;stroke-linecap:round;stroke-linejoin:round;stroke-miterlimit:4;stroke-opacity:1;stroke-dasharray:none"
     d="m 389.21875,136.78125 c -1.92754,4.42235 -11.81539,0.93906 -16.96797,2.15328 -29.65651,0.30308 -59.31302,0.60615 -88.96953,0.90922 0,17.86458 0,35.72917 0,53.59375 34.69792,0 69.39583,0 104.09375,0 0,11.82292 0,23.64583 0,35.46875 25.76042,-20.86458 51.52083,-41.72917 77.28125,-62.59375 -25.14583,-20.26042 -50.29167,-40.52083 -75.4375,-60.78125 0,10.41667 0,20.83333 0,31.25 z"
     id="path8342"
     inkscape:connector-curvature="0" />
  <path
     style="fill:#ffffff;fill-opacity:1;stroke:#ffffff;stroke-width:10;stroke-linecap:round;stroke-linejoin:round;stroke-miterlimit:4;stroke-opacity:1;stroke-dasharray:none"
     d="m 181.8125,392.625 c -29.23454,23.57917 -58.48059,47.14407 -87.71875,70.71875 30.93701,25.05267 61.85967,50.12311 92.8125,75.15625 0,-14.01042 0,-28.02083 0,-42.03125 34.69792,0 69.39583,0 104.09375,0 0,-21.83333 0,-43.66667 0,-65.5 -35.31201,-0.40605 -70.6248,-0.74985 -105.9375,-1.09375 0,-13.29167 0,-26.58333 0,-39.875 -1.08333,0.875 -2.16667,1.75 -3.25,2.625 z"
     id="path8535"
     inkscape:connector-curvature="0" />
  <path
     inkscape:connector-curvature="0"
     style="fill:#ffffff;fill-opacity:1;stroke:none"
     d="M 143.91916,52.007196 C 81.146729,53.59932 30.69359,105.05013 30.69359,168.20398 c 0,64.15632 52.086176,116.2425 116.24248,116.24249 64.15631,0 116.24249,-52.08616 116.24249,-116.24249 0,-64.15631 -52.08617,-116.196799 -116.24249,-116.196784 -1.00246,0 -2.02052,-0.02531 -3.01691,0 z m 1.23419,30.169106 c 11.79328,1.31e-4 21.1297,1.337183 28.0207,3.976838 6.89079,2.639932 12.69605,7.028166 17.46151,13.164703 4.76523,6.136787 8.04497,13.553367 9.82782,22.261147 l -39.26555,6.17095 c -1.98852,-7.33644 -4.28548,-12.18179 -6.85662,-14.58173 -2.57131,-2.39971 -5.48536,-3.61102 -8.77646,-3.61115 -3.97691,1.4e-4 -7.22238,1.28002 -9.69069,3.88541 -2.46846,2.60562 -3.70265,6.30821 -3.70257,11.10772 -8e-5,2.53704 0.25136,4.994 0.73137,7.35944 0.4799,2.36561 2.12549,7.95377 4.93676,16.73014 l 31.17475,0 0,24.59239 -27.5636,0 c -0.3429,5.82817 -1.4171,11.06207 -3.19975,15.72451 -1.43996,3.5655 -3.81692,7.26806 -7.17659,11.10772 3.83963,-0.89132 7.13081,-1.32559 9.87353,-1.32562 3.49679,2e-5 8.04502,0.68569 13.66752,2.05699 7.67932,1.78274 13.82741,2.65127 18.42144,2.65122 3.77103,6e-5 7.00507,-0.30851 9.78211,-0.95992 2.77681,-0.65132 6.44509,-2.01123 10.97058,-4.06827 l 13.9875,30.62623 c -6.78818,3.42829 -12.73058,5.82811 -17.87291,7.13088 -5.14259,1.30273 -10.69644,1.91984 -16.59301,1.91985 -6.44533,-3e-5 -13.7819,-1.11991 -22.07831,-3.3826 -10.9021,-3.01688 -17.69015,-4.77678 -20.29558,-5.25673 -2.60558,-0.47998 -5.39393,-0.68566 -8.41079,-0.68566 -8.84507,-2e-5 -18.60433,3.08547 -29.300597,9.32499 L 79.924079,208.88656 c 14.398864,-10.35346 21.621161,-20.68407 21.621191,-31.03761 -3e-5,-0.54846 -0.0914,-2.07979 -0.22856,-4.61679 l -21.392631,0 0,-24.59239 15.35882,0 c -2.605543,-9.05062 -4.091136,-14.28452 -4.433945,-15.72451 -0.411412,-2.19403 -0.63998,-4.9138 -0.639951,-8.13651 -2.9e-5,-8.57064 2.296933,-16.26148 6.856616,-23.08395 4.559601,-6.822161 10.570561,-11.770383 18.010031,-14.855999 7.43938,-3.085338 17.46147,-4.662353 30.0777,-4.662499 z"
     id="path4559" />
</svg>

<svg width="580" height="580" viewBox="0 0 580 580" fill="none" xmlns="http://www.w3.org/2000/svg">
<g clip-path="url(#clip0)">
<path d="M66.2751 1.76863C24.9401 1.76863 1.7041 23.1396 1.7041 66.8046V516.928C1.7041 557.772 22.5981 579.157 63.8961 579.157H515.92C557.227 579.157 578.149 558.841 578.149 516.928V66.8046C578.149 24.2036 557.227 1.76863 514.627 1.76863C514.624 1.76863 66.1331 1.62563 66.2751 1.76863Z" fill="#111111" stroke="#EEEEEE" stroke-width="3.408"/>
<path opacity="0.75" d="M347.156 40.3119C336.462 40.5713 329.783 51.4897 331.656 61.5619C331.656 74.1765 331.656 106.791 331.656 119.406C344.188 119.345 356.719 119.218 369.25 119.062C369.435 104.366 368.771 89.5614 369.594 74.9682C370.837 69.3049 378.787 68.9998 381.618 73.7556C415.885 101.1 449.885 128.886 484.059 156.229C489.056 158.788 495.251 165.237 490.719 170.999C455.023 199.941 419.221 228.811 383.543 257.738C380.052 261.993 373.046 266.199 368.344 261.124C366.369 245.299 367.708 229.327 367.437 213.437C355.51 213.437 343.583 213.437 331.656 213.437C331.782 323.309 331.405 413.204 331.844 523.062C333.106 532.93 343.586 538.518 352.969 536.843C410.765 536.652 468.605 537.224 526.375 536.562C535.921 534.897 541.088 524.695 539.5 515.531C539.438 361.98 539.625 208.42 539.406 54.8744C538.651 44.6124 527.91 38.5536 518.188 40.2807C461.177 40.3016 404.165 40.2389 347.156 40.3119H347.156Z" fill="white"/>
<path d="M389.219 136.781C387.291 141.204 377.403 137.72 372.251 138.935C342.594 139.238 312.938 139.541 283.281 139.844C283.281 157.708 283.281 175.573 283.281 193.438C317.979 193.438 352.677 193.438 387.375 193.438C387.375 205.26 387.375 217.083 387.375 228.906C413.135 208.042 438.896 187.177 464.656 166.312C439.51 146.052 414.365 125.792 389.219 105.531C389.219 115.948 389.219 126.365 389.219 136.781Z" fill="white" stroke="white" stroke-width="10" stroke-linecap="round" stroke-linejoin="round"/>
<path d="M181.812 392.625C152.578 416.204 123.332 439.769 94.0938 463.344C125.031 488.396 155.953 513.467 186.906 538.5C186.906 524.49 186.906 510.479 186.906 496.469C221.604 496.469 256.302 496.469 291 496.469C291 474.635 291 452.802 291 430.969C255.688 430.563 220.375 430.219 185.062 429.875C185.062 416.583 185.062 403.292 185.062 390C183.979 390.875 182.896 391.75 181.812 392.625Z" fill="white" stroke="white" stroke-width="10" stroke-linecap="round" stroke-linejoin="round"/>
<path d="M143.919 52.0073C81.1465 53.5995 30.6934 105.05 30.6934 168.204C30.6934 232.36 82.7795 284.447 146.936 284.447C211.092 284.447 263.178 232.36 263.178 168.204C263.178 104.048 211.092 52.0073 146.936 52.0073C145.933 52.0073 144.915 51.982 143.919 52.0073V52.0073ZM145.153 82.1764C156.946 82.1766 166.283 83.5136 173.174 86.1533C180.065 88.7932 185.87 93.1815 190.635 99.318C195.401 105.455 198.68 112.871 200.463 121.579L161.198 127.75C159.209 120.414 156.912 115.568 154.341 113.168C151.77 110.769 148.856 109.557 145.565 109.557C141.588 109.557 138.342 110.837 135.874 113.443C133.405 116.048 132.171 119.751 132.171 124.55C132.171 127.087 132.423 129.544 132.903 131.91C133.383 134.275 135.028 139.864 137.839 148.64H169.014V173.232H141.451C141.108 179.06 140.033 184.294 138.251 188.957C136.811 192.522 134.434 196.225 131.074 200.065C134.914 199.173 138.205 198.739 140.948 198.739C144.445 198.739 148.993 199.425 154.615 200.796C162.295 202.579 168.443 203.447 173.037 203.447C176.808 203.447 180.042 203.139 182.819 202.487C185.596 201.836 189.264 200.476 193.789 198.419L207.777 229.045C200.989 232.473 195.046 234.873 189.904 236.176C184.761 237.479 179.208 238.096 173.311 238.096C166.866 238.096 159.529 236.976 151.233 234.713C140.331 231.696 133.543 229.937 130.937 229.457C128.331 228.977 125.543 228.771 122.526 228.771C113.681 228.771 103.922 231.856 93.2257 238.096L79.9239 208.887C94.3227 198.533 101.545 188.203 101.545 177.849C101.545 177.301 101.454 175.769 101.316 173.232H79.9239V148.64H95.2827C92.6771 139.589 91.1915 134.355 90.8487 132.915C90.4373 130.721 90.2087 128.002 90.2088 124.779C90.2087 116.208 92.5057 108.517 97.0654 101.695C101.625 94.8728 107.636 89.9246 115.075 86.8389C122.515 83.7536 132.537 82.1766 145.153 82.1764Z" fill="white"/>
</g>
<defs>
<clipPath id="clip0">
<path d="M0 0H580V580H0V0Z" fill="white"/>
</clipPath>
</defs>
</svg>
